X:103
T:Chinquapin Hunting
C: Traditional
M:4/4
L:1/8
R:Reel
K:D
Q:120
|FG|:"D"ABAG FE D2|"A" [A6E6] FG|"D"ABAG FEDF|
|"A"ED C2 "D"D2 FG| ABAG FED2|"A"[A6E6] FG| "D" ABAG FEDF|
|1"A" ED C2 "D" D2 FG:|2 "A" ED C2 "D"D4|: "G"Bdef edBd| edef e2 d2|
|BABc dcBc|"A"BA2 F A4|"G"Bdef edBd|
|edef e2 ef | g2 (3f-gf e2 d2 |1 "A" c3 d cB A2:|2"A" [c8E8]||